@extra/icons/0nyX/symbolic-22/edit-select-frame.svg

<?xml version="1.0" encoding="UTF-8" standalone="no"?>
<svg xmlns="http://www.w3.org/2000/svg" viewBox="-3 -3 22 22" version="1.1">
 <path style="color:#000000;isolation:auto;mix-blend-mode:normal" d="m1 1h1v1h-1zm2 0h1v1h-1zm2 0h1v1h-1zm2 0h1v1h-1zm2 0h1v1h-1zm2 0h1v1h-1zm2 0h1v1h-1zm0 2h1v1h-1zm0 2h1v1h-1zm0 2h1v1h-1zm0 2h1v1h-1zm0 2h1v1h-1zm0 2h1v1h-1zm-2 0h1v1h-1zm-2 0h1v1h-1zm-2 0h1v1h-1zm-2 0h1v1h-1zm-2 0h1v1h-1zm-2 0h1v1h-1zm0-2h1v1h-1zm0-2h1v1h-1zm0-2h1v1h-1zm0-2h1v1h-1zm0-2h1v1h-1z" overflow="visible" fill="#f1f2f2"/>
</svg>

<?xml version="1.0" encoding="UTF-8" standalone="no"?>
<svg
   xmlns:dc="http://purl.org/dc/elements/1.1/"
   xmlns:cc="http://creativecommons.org/ns#"
   xmlns:rdf="http://www.w3.org/1999/02/22-rdf-syntax-ns#"
   xmlns:svg="http://www.w3.org/2000/svg"
   xmlns="http://www.w3.org/2000/svg"
   id="svg4"
   version="1.1"
   viewBox="-3 -3 22 22">
  <metadata
     id="metadata10">
    <rdf:RDF>
      <cc:Work
         rdf:about="">
        <dc:format>image/svg+xml</dc:format>
        <dc:type
           rdf:resource="http://purl.org/dc/dcmitype/StillImage" />
        <dc:title></dc:title>
      </cc:Work>
    </rdf:RDF>
  </metadata>
  <defs
     id="defs8" />
  <path
     id="path2"
     overflow="visible"
     style="color:#000000;overflow:visible;isolation:auto;mix-blend-mode:normal;fill:#f1f2f2;marker:none"
     d="M 1,1 H 2 V 2 H 1 Z M 3,1 H 4 V 2 H 3 Z M 5,1 H 6 V 2 H 5 Z M 7,1 H 8 V 2 H 7 Z m 2,0 h 1 V 2 H 9 Z m 2,0 h 1 v 1 h -1 z m 2,0 h 1 v 1 h -1 z m 0,2 h 1 v 1 h -1 z m 0,2 h 1 v 1 h -1 z m 0,2 h 1 v 1 h -1 z m 0,2 h 1 v 1 h -1 z m 0,2 h 1 v 1 h -1 z m 0,2 h 1 v 1 h -1 z m -2,0 h 1 v 1 h -1 z m -2,0 h 1 v 1 H 9 Z m -2,0 h 1 v 1 H 7 Z m -2,0 h 1 v 1 H 5 Z m -2,0 h 1 v 1 H 3 Z m -2,0 h 1 v 1 H 1 Z m 0,-2 h 1 v 1 H 1 Z M 1,9 h 1 v 1 H 1 Z M 1,7 H 2 V 8 H 1 Z M 1,5 H 2 V 6 H 1 Z M 1,3 H 2 V 4 H 1 Z" />
</svg>
